icons/tokens/0x674C6Ad92Fd080e4004b2312b45f796a192D27a0/logo.svg

<svg width="32" height="32" viewBox="0 0 32 32" fill="none" xmlns="http://www.w3.org/2000/svg">
<path fill-rule="evenodd" clip-rule="evenodd" d="M32 16L16 0L0 16L16 32L32 16Z" fill="#06B596"/>
<path fill-rule="evenodd" clip-rule="evenodd" d="M32 16L16 0L0 16C8.0507 11.8239 12.0379 14.0195 16.0836 15.9973C20.1293 17.975 24.2338 19.7353 32 16Z" fill="#01FEB5"/>
<path fill-rule="evenodd" clip-rule="evenodd" d="M12.1273 19.7376C12.2055 20.2802 12.5987 21.0702 13.069 21.5675C13.5392 22.0648 14.0861 22.2696 14.6005 22.388C15.1149 22.5064 15.5967 22.5386 16.1045 22.5242C16.6123 22.5099 17.146 22.4492 17.6399 22.3346C18.1341 22.22 18.5885 22.0517 18.9372 21.6987C19.2855 21.3457 19.5278 20.8081 19.5909 20.2821C19.6536 19.7562 19.5367 19.2414 19.2724 18.8219C19.008 18.4023 18.5958 18.078 17.8082 17.78C17.021 17.4823 15.8587 17.211 14.9929 16.9738C14.1268 16.7361 13.5574 16.5329 13.0419 16.2872C12.5268 16.0418 12.0658 15.7542 11.7074 15.4345C11.3494 15.1145 11.0943 14.7623 10.9194 14.4132C10.7441 14.0641 10.6489 13.7177 10.5962 13.384C10.5436 13.05 10.5335 12.7288 10.5568 12.4095C10.58 12.0906 10.6361 11.7736 10.7383 11.4516C10.8405 11.1299 10.9887 10.8033 11.2047 10.4778C11.4206 10.1523 11.7047 9.82796 12.0824 9.53111C12.4606 9.23464 12.9328 8.96565 13.4584 8.76943C13.9843 8.5732 14.5633 8.44974 15.1981 8.39362V6.4H16.5732V8.38239C19.2201 8.62274 21.2826 10.2959 21.3628 12.8283H19.3691C19.2201 11.2813 18.3772 10.5877 17.0218 10.2448C16.6077 10.1399 16.1459 10.0679 15.1981 10.1926C13.4564 10.4221 12.5399 11.476 12.5399 12.5875C12.5399 13.641 12.9537 14.2096 14.347 14.7716C14.9918 15.0313 15.846 15.2898 16.5937 15.4477C19.8831 16.1424 21.5234 17.3999 21.5234 19.8065C21.5234 22.5676 19.2774 24.0689 16.5732 24.2752V26.2572H15.1981V24.2636C12.471 24.0228 10.2138 22.4074 10.1337 19.7376H12.1273Z" fill="white"/>
</svg>

<svg width="32" height="32" fill="none" xmlns="http://www.w3.org/2000/svg"><path fill-rule="evenodd" clip-rule="evenodd" d="M32 16L16 0 0 16l16 16 16-16z" fill="#06B596"/><path fill-rule="evenodd" clip-rule="evenodd" d="M32 16L16 0 0 16c8.05-4.176 12.038-1.98 16.084-.003 4.045 1.978 8.15 3.738 15.916.003z" fill="#01FEB5"/><path fill-rule="evenodd" clip-rule="evenodd" d="M12.127 19.738c.079.542.472 1.332.942 1.83.47.497 1.017.702 1.531.82.515.118.997.15 1.505.136a7.899 7.899 0 001.535-.19c.494-.114.948-.282 1.297-.635.348-.353.59-.89.654-1.417a2.24 2.24 0 00-.319-1.46c-.264-.42-.676-.744-1.464-1.042-.787-.298-1.95-.569-2.815-.806-.866-.238-1.436-.441-1.951-.687-.515-.245-.976-.533-1.335-.852a3.43 3.43 0 01-.788-1.022 3.47 3.47 0 01-.323-1.029 4.227 4.227 0 01-.04-.975c.024-.318.08-.635.182-.957.103-.322.25-.649.467-.974.216-.326.5-.65.877-.947.379-.296.85-.565 1.376-.762a6.625 6.625 0 011.74-.375V6.4h1.375v1.982c2.647.24 4.71 1.914 4.79 4.446h-1.994c-.149-1.547-.992-2.24-2.347-2.583-.414-.105-.876-.177-1.824-.052-1.742.23-2.658 1.283-2.658 2.395 0 1.053.414 1.622 1.807 2.184.645.26 1.499.518 2.247.676 3.29.694 4.93 1.952 4.93 4.358 0 2.762-2.247 4.263-4.95 4.47v1.981h-1.376v-1.993c-2.727-.241-4.984-1.857-5.064-4.526h1.993z" fill="#fff"/></svg>
